X:85
T:Jazzed Up Molecules
C:Bill Guest
N:Arranged for Mandolin & TablEdited by Wendy Anthony
L:1/8
Q:1/4=140
M:4/4
K:G
""Medium Swing""z4 zd ^c=c |: "G"Bd gb z2 bb | "B7"a^g =gf zf ef | "C"ga g/f/e "C#o7"ga g/f/e | 
"G"d^c =cB zB AB | "C"c2 [c2E2] "Cm"[c^D]d [cD]A | "G"[BD]c B[^GB,] "E7"z2 [G2B,2] | 
|1 "A7"A^c ea zb ag | "D"fa fd "D7"zd ^c=c :|2 "A7"AB AG "D7"FD EF | "G"GB dg z2 [g2B2] | 
|: "G"b6 z2 | "C9"^a6 z2 | "G"b2 zb bb ba | "E7"^gb ge ze ^de | "A9"a2 a2 aa ae | 
"D"f2 fa "D7"fe d2 |1 "G"g2 [g2B2] "Bbo7"[g2B2] ge | "Amsus4"[fA]a fe zf ed :|2 "G"g4 "D"[g4B4D4] | 
[g4B4D4G,4] z4 | 


